remix/Media/polaroid-2-line.svg

<svg viewBox="0 0 24 24" fill="currentColor" xmlns="http://www.w3.org/2000/svg"><path d="M19 15V5H5V15H19ZM3 3.9934C3 3.44476 3.44495 3 3.9934 3H20.0066C20.5552 3 21 3.44495 21 3.9934V20.0066C21 20.5552 20.5551 21 20.0066 21H3.9934C3.44476 21 3 20.5551 3 20.0066V3.9934ZM12 12C13.1046 12 14 11.1046 14 10C14 8.89543 13.1046 8 12 8C10.8954 8 10 8.89543 10 10C10 11.1046 10.8954 12 12 12ZM12 14C9.79086 14 8 12.2091 8 10C8 7.79086 9.79086 6 12 6C14.2091 6 16 7.79086 16 10C16 12.2091 14.2091 14 12 14ZM6 6H8V8H6V6ZM6 17V19H18V17H6Z"/></svg>

<svg viewBox="0 0 24 24" xmlns="http://www.w3.org/2000/svg"><path fill="none" d="M0 0h24v24H0Z"/><path d="M19 15V5H5v10h14ZM3 3.99c0-.55.44-1 .99-1H20c.54 0 .99.44.99.99v16.01l0-.001c-.01.54-.45.99-1 .99H3.97h0c-.55-.01-1-.45-1-1V3.968ZM12 12v0c1.1 0 2-.9 2-2 0-1.11-.9-2-2-2v0c-1.11 0-2 .89-2 2 0 1.1.89 2 2 2Zm0 2v0c-2.21 0-4-1.8-4-4 0-2.21 1.79-4 4-4v0c2.2 0 4 1.79 4 4 0 2.2-1.8 4-4 4ZM6 6h2v2H6V6Zm0 11v2h12v-2H6Z"/></svg>
